X:1
T:Etude in A Minor “Winter Wind”
T:Etude in A Minor “Winter Wind”
T:Frédéric Frangois Chopin
T:(1 8 10 - 1 849)
T:Opus 25 No. 11
T:marcatissimo
T:marcatissimo
T:marcatissimo
T:marcatissimo
T:marcatissimo
T:marcatissimo
T:marcatissimo
T:marcatissimo
T:marcatissimo
T:marcatissimo
T:marcatissimo
T:marcatissimo
T:marcatissimo
T:marcatissimo
T:marcatissimo
T:marcatissimo
T:marcatissimo
T:marcatissimo
T:marcatissimo
T:marcatissimo
T:marcatissimo
C:(1 8 10 - 1 849)
Z:marcatissimo
%%score { ( 1 3 4 5 ) | 2 }
L:1/8
M:4/4
K:C
V:1 treble nm="1an0"
V:3 treble 
V:4 treble 
V:5 treble 
V:2 bass 
V:1
"^Lento""_P" !wedge!E2 E>E E2 F2 | E2 C2 !fermata!E4 | %2
!pp! [G,-CE]2 ([G,CE]>[G,CE] [G,CE]2 [A,CF]2 | [G,CE]2 [A,C]2) !fermata![G,C]2 !fermata![^G,D]2 || %4
"^Allegro con brio. (J = 69)""^8va ----------------------------------------------------I""_f risoluto" f'/c'/e'/a/^d'/c'/ d'/[c'd']/ a/[bc']/e/ b/e/[bb]/c/a/e/ ^g/c/=g/c/^f/A/ | %5
 f'/c'/(e'/a/^d'/c'/ [c'd']/c'/a/[bc']/e/ b/e/[bb]/c/a/e/ ^g/c/=g/)c/^f/A/ | %6
"_dim." (=f/c/e/A/^d/c/ =d/A/^c/A/=c/E/ B/E/B/C/A/E/ ^G/C/=G/C/^F/A,/ | %7
 F/C/E/A,/^D/C/[K:bass] [CD]/A,/!wedge!^C/A,/C/E,/!<(! B,/E,/_B,/^C,/A,/E,/ ^G,/C,/[K:treble+8]A,,/E,,/C,/!<)!F,,/) | %8
[K:treble] E/B,/D/F/e/B/ d/(3f/e'/b/d'/f/ d'/a/c'/f/d/A/ c/F/D/A,/C/F,/ | %9
 E/B,/D/F/e/B/ d/f/e'/b/d'/f/ d'/a/c'/f/d/A/ c/F/D/ A,/C/B,/ | %10
 (A/E/)^G/B/a/e/ ^g/b/a'/e'/^g'/b/ g'/^d'/ ^f'/b/g/ ^d2 ^f/B/G/^D/^F/B,/ | %11
 A/E/^G/B/a/e/ ^g2 x7/6 z2 x4/3 | %12
[K:treble] f'/c'/e'/a/^d'/c'/ d'/[c'd']/a/[bc']/e/ b/e/[bb]/c/a/e/ ^g/c/=g/c/^f/A/ | %13
 [e'f']/[I:staff +1] [A,CE]2[I:staff -1] c'/ e'/ a/ ^d'/ c'/ [c'd']/[c'd']/a/[bc']/e/ b/e/[bb]/c/a/e/ ^g/c/=g/c/^f/A/ | %14
[K:treble+8] !tenuto![D=d][I:staff +1] .[C,,,,C,,]2[I:staff -1] _g/ B/ E/ _B/ _G/ A/E/_A/G/G/E/ =G/E/_G/=C/F/_A,/ ^E/_G,/8E/8A,/^D/G,/ x/4 _B,/[^E,B,]/B,/G,/A,/[E,A,]/!<(! G,/E,/[G,A,]/!arpeggio!G,/^A,/E,/ B,/G,/^B,/E,/_C/!<)!G,/ x"^dim." | %15
[K:treble] A/E/G/_B/a/e/ g/[_bb]/ x a'/[e'e']/g'/ x4 | %16
 A/E/G/_B/a/e/ g/[_bb]/ x a'/[_e'e']/g'/b/ a/a/4 _e/ x7/4 | %17
 A/C/G/_B,/c/A/ !>!_B/G/a/c/g/B/ !>!c'/a/[_bb]/"^8va"g/a/c/ g/B/c'/a/[bb]/g/ x3 | %18
 d'/a/c'/f/^g/f/ a/c/e/c/f/A/ ^d'/a/c'/f/g/f/ a/c/e/c/f/A/ | %19
 (e/B/d/f/e'/b/ d/f/e'/b/d'/f/ a/f/g/B/a/)f/ g/B/e'/g/d'/f/ | %20
 b/g/c'/e/^d'/c'/ e'/g/^f/e/g/c/ !wedge!^a/g/b/e/c'/g/ !wedge!^c'/e/[c'd']/g/d'/e/ x2 | %21
[K:treble]"^(8va)" e'/b/^d'/g/[c'd']/b/ !wedge!^c'/g/[bc']/g/[gb]/e/ !wedge!^a/g/a/e/^g/e/ =g/^c/^f/c/=f/G/ | %22
 e'/b/^d'/g/[c'd']/b/ !wedge!^c'/g/[bc']/g/b/e/ !wedge!^a/g/a/e/^g/e/ =g/^c/^f/c/=f/G/ | %23
"_dim." e/B/^d/G/=d/B/ ^c/G/4c/G/B/E/ ^A/G/=A/E/^G/E/ =G/^C/^F/C/F/G,/ | %24
 E/B,/^D/G,/D/B,/[K:bass] !wedge!^C/G,/C/G,/B,/E,/ ^A,/G,/=A,/B,,/^G,/E,/ =G,/B,,/^F,/E,/G,/^C,/ | %25
[K:bass] B,/^F,/A,/C/[K:treble+8]B/^F/ !tenuto!A/c/b/^f/a/c/ a/e/g/c/A/E/ !>!G/C/[K:bass]A,/E,/G,/C,/ | %26
 (B,/^F,/A,/C/[K:treble+8]B/^F/ A/c/b/^f/a/c/ a/e/g/c/[K:treble+8]A/E/[K:bass] G/C/A,/E,/G,/F,/) | %27
[K:treble] E/B,/^D/^F/e/B/ ^d/^f/ x5/6 [bc']/ x/ D/^A,/ ^C/^F,/ x/6 || %28
[K:G] E/B,/^D/^F/e/B/!<(! ^d/^f/ x!<)! b'2 x | %29
"^8va" [bc']/[I:staff +1] .E,,2[I:staff -1] g/ b/ e/ !wedge!^a/ g/ a/e/^g/e/=g/B/ ^f/B/=f/G/e/B/ ^d/G/=d/G/^c/E/ [b^c']/[I:staff +1] [E,G,B,]2[I:staff -1] g/ b/ e/ a/ g/ a/e/^g/e/=g/B/ ^f/B/=f/G/e/B/ ^d/G/=d/G/c/E/ | %30
[K:treble] c/G/B/E/^A/G/ A/E/^G/E/G/B,/ ^F/B,/F/^G,/E/B,/[K:bass] [EE]^F,/[^F,D]/G,/!wedge!^C/=F,/ | %31
 =C/G,/B,/E,/_B,/G,/ A,/E,/_A,/E,/G,/=B,,/ ^F,/=F,/G,/B,,/[K:treble+8]^G,,/=F,,/ =A,,/D,,/^A,,/(=G,,/=B,,/F,,/) | %32
[K:treble] E/B,/D/=F/e/B/ d/=f/ x [d'e']/_b/[bd']/^f/e/_B/ x9/4 || %33
[K:F] E/A,/D/F/e/A/ !>!d/f/ e'/a/d'/f/ e'/^g/ d'/f/e/ d/F/E/^G,/D/ F,2 | %34
 E/=G,/D/F,/G/E/ F/D/e/G/d/F/ g/e/f/d/e'/g/ d'/"^8va"f/g/e/f/d/ | %35
 a/e/g/c/e'/g/ d'/e/c'/^g/=b/e/ b4 x4 | %36
 d'4[I:staff +1] D4[I:staff -1] x[I:staff +1] [G,DFG]2[I:staff -1] x5 | %37
 d'/g/c'/e/a/e/ g/c/f/c/e/G/ a/e/g/c/f/c/ e/G/a/e/g/c/ | %38
 [eg]2 x/ [Geg]3/2[I:staff +1] [E,G,,]/G,,/E,,/[I:staff -1][G,eg]/[I:staff +1] ^F,/ C,,/ C/A,/_B,/^F,/[F,F,A,]/[I:staff -1] [A,ea]2 [G_eg]2 x3/2 [G^ce]2 x [Geg]4 x7/2 | %39
[K:treble] [g_b]2 x [_Bgb]>[Bgb] x [Bgb]2 x [^cg^c']2 x/ | %40
 b4[I:staff +1] F,/^C,/E,/_B,,/D,/B,,/ C,/G,,/=C,/G,,/_B,,/E,,/ A,,/E,,/G,,/^C,,/F,,/[C,,E,,]/[I:staff -1] z2 x3/2 | %41
"^8va" c'/!p!_e/[=bb]/_d/[aa]/e/ g/d/f/d/e/G/ f'/c'/[_e'e'][aa]/[_d'd']/a/!>(! !tenuto!c'/e/_b/e/!>)!a/c/ x | %42
 c'/!<(!_e/[=bb]/_d/a/e/ b/d/[_d'd']e/g/!<)!d/ b/e/[_aa]/c/g/e/ a/c/b/e/a/c/ | %43
 (!wedge!^g'/[a=b]/^f'/=a/[d'e']/b/ ^d'/a/^c'/a/b/^f/ e'/^g/d'/e/!wedge!c'/g/[I:staff +1] E[I:staff -1]z/[I:staff +1]^G,/[I:staff -1] x/ | %44
 ^g/^d/^f/A/^e/d/ f/A/a/=B/d/A/ f/B/=f/^G/=e/B/ d/G/=d/B/)^c/G/ | %45
"_f" (^c/^G/=B/!<(!=D/c/G/ =d/^c'/^g/[g=b]/"_Va" z!<)! x/ c/G/ b/d/c/G/B/D/) | %46
 (d/=G/=c/=C/f/c/ _e/G/[aa]/e/g/c/ c'/g/=b/e/[bb]g/ a/e/[aa]e/g/c/) | %47
 (f/c/_e/_G/f/c/ e/_g/[gf']/c'/_e'/ !wedge![_g'_a']4 e'/g/f/c/^d/^F/) | %48
 ^f/=B/=e/E/a/e/ g/B/c'/g/=b/e/ e'/b/^d'/g/[c'd']/b/ !wedge!^c'/g/ x15/4 | %49
[K:treble] =b4 x2 !tenuto!g/c/^f/A/=f/c/ ^f/A/g/=B/f/A/ | %50
 !>!^f/=B/=f/G/e/B/ !>!e/G/f/A/e/G/ e/A/^c/F/d/A/ d/E/(B/A/=c/E/) | %51
 (c/A/=B/F/c/A/ B/ f/4c'/a/=b/(3f'/"^Va" c'/^a/b/f/ x/ b/f/c/^A/B/F/) | %52
 (=B/^F/A/C/B/F/ A/c/=b/ ^f/a/"^8va"c'/ b/f/ a/c/B/F/ a/c/B/F/A/C/) | %53
 !>!A/E/^G/=B/a/e/ ^g/[g=b]/[ba']/ e'/!wedge!^g'/b/ x3/2 ^f'/b/g/ d2 x2 | %54
 ^F/^C/E/^G/^f/^c/ e/^g/^f'/^c'/e'/g/[I:staff +1] =B,4[I:staff -1] x | %55
 z2 z2 x[I:staff +1] =F,>F,[I:staff -1] x[I:staff +1] F,2[I:staff -1] x/4[I:staff +1] ^G,2[I:staff -1] x3/2 | %56
 g/d/f/=B/a/f/ ^g/d/c'/g/=b/f/"^8va" e/B/d/^G/=g/d/ f/B/a/f/^g/d/ | %57
"^(8va)""_ff" f'/=b/e'/^d'/b/ x/ [c'd']/[I:staff +1] =B,,/[I:staff -1]^g/[I:staff +1]F,/[I:staff -1]^c'/[I:staff +1]B,,/[I:staff -1]=g/[I:staff +1]F,/[I:staff -1][bc']/[I:staff +1]^D,/[I:staff -1]f/[I:staff +1] ^G,/ D,/G,/F,/=B,/F,/B,/ G,/^D/G,/D/B,/[E^F]/ =B/^f/^d/^g/=d/g/!>(! f/b/f/!>)!b/=g/=d'/- [d'^g'][I:staff -1] z2 | %58
[K:treble]"^8va""_ff" (=b/f/!wedge!^a/d/a/f/ ^g/d/=g/d/^f/=B/ [e'^f']b/e'/^d'/b/ [c'd']/[I:staff +1] ^D,/[I:staff -1]^g/[I:staff +1]^G,/[I:staff -1]!wedge!^c'/[I:staff +1]D,/[I:staff -1]g/[I:staff +1]G,/[I:staff -1][bc']/[I:staff +1]^F,/[I:staff -1]f[I:staff +1] =B,/ | %59
[I:staff -1] =b/f/!wedge!^a/d/a/f/ ^g/d/=g/d/^f/=B/ !wedge![^Gd=f]) z z2 | %60
!p! (3(f/d/e/ ^G) z2 (3(f/d/e/ G) z2 | %61
 f/d/e/^G/f/d/ e/G/f/d/e/(3G/ f/!>!d/(3:2:1e/G/f/d/ x/ e/G/f/d/ e/G/ x/24 | %62
 f/d/e/^G/!wedge!f/^d/ e/G/f/d/e/=G/ f/d/e/G/f/=d/ e/G/f/d/e/^G/ x3/2 | %63
 f/d/e/^G/f/^d/ e/^g/f'/ ^d'/e'/^g'/"^8va" f'/d'/e'/g/f'/d'/"_rit." e'/g/f'/d'/e'/g/ | %64
"^a tempo""^(8va" f'/c'/e'/a/^d'/c'/ d'/[c'd']/a/[=bc']/e/ b/e/[bb]/c/a/e/ ^g/c/=g/c/^f/A/ | %65
 [e'f']/[I:staff +1] [A,CE]2[I:staff -1] c'/ e'/ a/ ^d'/ c'/ [c'd']/[c'd']/a/[=bc']/e/ b/e/[bb]/c/a/e/ ^g/c/=g/c/^f/A/ | %66
"_im." f/c/e/A/^d/c/ =d/A/^c/A/=c/E/ =B/E/B/C/A/E/ ^G/C/=G/C/^F/A,/ | %67
 F/C/E/A,/^D/C/[K:bass] [CD]/A,/!wedge!^C/A,/C/E,/!<(! =B,/E,/_B,/^C,/A,/E,/ ^G,/C,/[K:treble+8]A,,/E,,/C,/!<)!F,,/ | %68
[K:treble] E/=B,/D/F/e/=B/ d/f/ e'/=b/d'/f/ d'/a/c'/ f/d/A/ c/F/D/ A,/C/F,/ | %69
 E/=B,/D/F/e/=B/ d/f/e'/ x23/6 c/F/D/A,/ C/B,/ x/24 | %70
 (A/!<(!E/)^G/=B/a/e/ ^g/=b/a'/e'/^g'/b/ g'/^d'/^f'/b/ g/^d/ ^f/B/G/^D/^F/ =B,2 | %71
 A/E/^G/=B/a/e/ !tenuto!^g/=b/ x23/4!<)! | %72
 !>!f'/c'/e'/a/^d'/c'/ d'/[c'd']/a/[=bc']/e/ b/e/[bb]/c/a/e/ ^g/c/=g/c/^f/A/ | %73
 [e'f']/[I:staff +1] [A,CE]2[I:staff -1] c'/ e'/ a/ ^d'/ c'/ [c'd']/[c'd']/a/[=bc']/e/ b/e/[bb]/c/a/e/ ^g/c/=g/c/^f/A/ | %74
 =f/c/e/A/^d/c/ =d/A/^c/A/=c/E/ =B/E/B/C/A/E/ ^A/C/4A/C/^F/^A,/ | %75
 =F/C/E/A,/^D/C/[K:bass] [CD]/[I:staff +1] C,2[I:staff -1] A,/ !wedge!^C/ A,/ C/ E,/ =B,/F,/A,/^C,/^G,/F,/ A,/C,/B,/E,/C/C,/ | %76
[K:bass] (!arpeggio!C/F,/=B,/B,/[K:treble+8]c/F/ =B2 x/ =b2"^8va" ^c'/^f/b/B/^c/8^F/4 (b/B/)c/F/B/=B,/ | %77
 (3(=d/)G/!>!^c/c/d'/g/ x/"^Va" c/8^d'/g/^c'/c/ [e'e']_b/[_b=d']/d/4 _e/4_B/ d'/d/e/_B/d/D/) | %78
[K:treble] =e/A/^d/^D/e/A/ d/d/e'/a/^d'/d'/ e'2 a/d'/d/ e/A/ !>!d/D/e/A/d/d/ | %79
 e'/a/^d'/^d/e/A/ !>!d/^D/e/A/d/d/!>(! e'/a/d'/d/e'/a/ d'/d/e'/a/d'/!>)!d/ | %80
!p! e'/!>!=b/^d'/a/e'/(3b/ d'/a/(3:2:1!>!e'/b/d'/a/ x/ e'/b/d'/a/ e'/b/ d'/a/e'/b/d'/a/ x/24 | %81
 e'/=b/^d'/a/e'/b/ d'/a/e'/b/d'/a/ e'/b/d'/a/e'/b/ d'/a/e'/b/d'/a/ | %82
"^(8va)" f'/c'/e'/a/[c'd']/a/ c'/e/=b/e/a/c/ f'/c'/e'/a/d'/a/ c'/e/b/e/a/c/ | %83
 f/c/e/A/d/A/ c/E/=B/E/A/C/ !>![=B,EAB]2 !tenuto![DE^GBe]2 | %84
"_ff" a'/e'/^g'/c'/=g'/e'/ ^f'/c'/[e'=f']c'/e'/a/ ^d'/c'/[c'd']/[c'd']/a3/4 =c'/e/=b/e/_b/c/ | %85
 a/e/^g/c/=g/e/ ^f/c/=f/c/e/A/ ^d/c/=d/A/^c/A/"_dim." =c/E/=B/E/_B/C/ | %86
!<(! A/E/^G/C/=G/E/ ^F/C/=F/C/E/A,/ ^D/C/=D/A,/^C/A,/[K:bass] C/E,/=B,/E,/_B,/^C,/ | %87
"_ff" A,/E,/"_3"^G,/C,/=G,/E,/ ^F,/C,/=F,/C,/E,/A,,/ ^D,/C,/=D,/A,,/^C,/A,,/ =C,/E,,/=B,,/E,,/_B,,/!<)!E,,/ | %88
[K:bass] !wedge!A,,2[K:treble+8] !>![A,CEA]>!>![A,CEA] !>![A,CEA]2 !>![A,DFA]2 | %89
 !>![A,CEA]4 !>![A,CDA]4 | %90
 !>!A8[I:staff +1] !tenuto!^G,,,2[I:staff -1] [dF]4[I:staff +1] [D,,F,]3[I:staff -1] x2 | %91
 !wedge!a'2 z2 z4 |] %92
V:2
 z8 | !fermata!z8 | C,2 C,>C, C,2 F,,2 | C,,2 F,,2 C,,2 !fermata!B,,,2 || %4
!ped! .A,,,2 x [A,CE]>[A,CE] x/ [A,CE]2 x [A,CF]2 x | [A,CE]2 x [E,A,C]2 x/ [A,CE]4 x2 | %6
 .A,,,2 x [A,,E,]>[A,,E,] x [A,,E,]2 x [A,,F,]2 x | [A,,E,]2 x3/2 [A,,,A,,,]3 x11/2 | %8
!ped! .^G,,,2 x ([F,D]>[F,D] x/!ped! [F,C]2) x ([A,,,A,,]2 x | %9
 .[^G,,,^G,,]2) x!ped-up!!>(! (3([^G,D]!>)![F,D][E,D] x [E,C]2) x ([A,,,A,,]2 x | %10
!ped! .[B,,,B,,]2)[K:treble+8] x (3(E^G^c) x!ped! [B,^DAB]2[K:bass] x5/2 ([B,,B,]2 x | %11
 .[E,,E,]2) x (3:2:1[B,^G][I:staff -1] b/[I:staff +1](3:2:1[^A,^^F][I:staff -1]^a'/[I:staff +1][I:staff -1] !tenuto!e'/-[I:staff +1](3:2:1[B,G][I:staff -1] ^g'/ b/ !>!!tenuto!e'2!ped!!ped-up! | %12
[I:staff +1][K:bass]!ped! .A,,,2 x [A,CE]>[A,CE] x/ [A,CE]2 x [A,CF]2 x | %13
[I:staff -1] e'4[I:staff +1] x/[I:staff -1] b4[I:staff +1] x5 | %14
 x7/2 [_G,,E,]>[G,,E,] x [G,,E,]2 x [G,,F,]2 [G,,^E,]2 x/ _C,2 x [G,,E,]4 x3 | %15
 .C,,2 x/ _B,4 x/6 ([^C,,^C,]2 x11/6!ped! | %16
 .[D,,D,]2) x (3([_B,DG]^C,D,)!ped! [_E,B,_DG]2 [_E,,-E,]2 x | %17
 .[=E,,=E,]2 x C->C x C2 x ([C,,C,]2 x4 | .[F,,F,]2) x A3/2A,- x/ [F,A,]4 x2 | %19
!ped! .[G,,,G,,]2[K:treble+8] x (3(B,FA x G2)[K:bass] x [GBf]2 x | %20
 .[C,,C,]2 x !arpeggio![C,G,E]2 x z4 x4 | %21
[K:bass]!ped! .[E,,,E,,]2 x [E,G,B,]>[E,G,B,] x [E,G,B,]2 x [E,^G,^C]2 x | %22
 [E,G,B,]2 x [B,,E,G,]2 x B,2 x4 | .E,,,2 x [E,,B,,]>[E,,B,,] x/4 [E,,B,,]2 x [E,,^C,]2 x3/2 | %24
 [E,,B,,]2 x [E,,,E,,,]3 B,,,4 x2 | %25
!ped! .^D,,,2 x [^D,C-]>!ped-up![D,C] x!ped! [E,C]2 x ([E,,,E,,]2 x | %26
!ped! .[^D,,,^D,,]2) x/ C4 x5/2 [E,,,E,,]2 x | %27
 .[^F,,,^F,,]2 x (3:2:2B,^D x/3!ped! [^F,A,E^F]2 x4/3!ped-up! || %28
[K:G] .[B,,,B,,]2 x ([F,^D]!ped-up![^E,^^C][F,D]!ped! .[B,,^D,B,x]2) | %29
[I:staff -1] b4[I:staff +1] x8!ped-up![I:staff -1] b4[I:staff +1] x12!ped! | %30
[K:bass] .G,,,2 x B,,>B,, x B,,2 x C,2 x3/2 | B,,2 x [G,,,G,,,]3 D,,4 x2 | %32
!ped! .G,,,2 x (3[D,B,]^F,,G,, x/6!ped! [_A,,D,_B,]2 (^G,,,2 x13/12 || %33
[K:F] .=A,,,2) x ([F,D]^G,,A,,)!ped! [B,,F,^G,D]2 x/ (^A,,,2 x5/2 | %34
 .=B,,,2) x G,>G, x G,2 x ([G,,,G,,]2 x | %35
 .[C,,C,]2) x (3(E,C!ped-up!^G) x3/2 .F,,2 x/ ([F,_A,][_DD][_AA]) x2 | %36
[I:staff -1] [d'd']/!ped![I:staff +1] .G,,2[I:staff -1] ^f/ c'/ =e/ g/ c/ a4 =b/=f/[d'e']/g/[c'd']/f/[I:staff +1] x4 | %37
!ped! !arpeggio![C,G,E]2 x z2 x z4[K:treble+8] x2 | %38
[K:treble] (!tenuto!D/[A,C]/C/^F,/)B,/[F,A,]/ z2 x7/2 [^FB]/F/A/F/G/_E/ z E/F/C/F/C/ E/A,/D/[A,^C]/C/F,/ B,/F,/A,/_E,/G,/E,/ !tenuto!F,/([^C,G,]/F,/[C,E,]/!arpeggio!E,/A,,/) x3/2 | %39
[K:treble+8][K:treble] =c/G/_B/E/A/E/ G/^C/F/C/E/_B,/[K:bass] D/_B,/C/G,/C/G,/ _B,/E,/A,/E,/G,/ | %40
[I:staff -1] [_Bgbb]4[I:staff +1] x3[I:staff -1] [Beg]2[I:staff +1] x[I:staff -1] [Bgb]4[I:staff +1] B,,,/D,,/(B,,,/^C,,/G,,,/) | %41
[K:bass]!ped! .[_E,,,_E,,]2 x (_E>!ped-up!E) x E x9/2 C2 |!ped! _E2 x =B,2 x/ E2 x2 z2 x!ped! | %43
!ped! .[=B,,,=B,,]2 x =B,>!ped-up!B, x!ped! B,2 x7/2!ped-up! | %44
!ped! =B,2 x (3^F,^G,A, x!ped! !arpeggio!G,2 x z2 x | %45
!ped! ([E,,E,]2 x/ (3[=B,,,=B,,][^G,,,^G,,][B,,,B,,] x/ .[E,,,E,,]) z/!ped-up! [E,,E,]<([^F,,^F,][E,,E,]/ x3/2 | %46
 [_E,,_E,]2 x [=C,,=C,]2) x [E,,E,]2 x3/2 (3([=F,,=F,][^F,,^F,][G,,G,] x3/2 | %47
 [_A,,_A,]2 x (3[_E,,_E,][C,,C,][E,,E,] x/ .[_A,,,A,,]) x3/2 z/!>(! [A,,A,]<!>)![_B,,_B,][A,,A,]/ x3/2 | %48
 [G,,=G,]2 x [E,,=E,]2 x [G,,G,]2 x (3[=A,,=A,][^A,,^A,][=B,,=B,] x11/4 | %49
[K:bass][I:staff -1] [=bb]/[I:staff +1] !>![C,C]2[I:staff -1] e/ a/ _B/ [aa]/ e/ g/B/a/e/g/B/[I:staff +1] x4 | %50
 !arpeggio![F,,,E,,=B,,]4 x2 !arpeggio!!>![D,A,D]2 x !>![A,,E,^C]2 x | %51
 [D,,D,]2 x ([F,F]2 x/4 [^A,,^A,]) z/[I:staff -1] c/[I:staff +1][C,C]/[I:staff -1]^A/[I:staff +1] x5/2 | %52
 [^D,,^D,]2 x ([^F,^F]2 x [=A,,=A,]) z/ [=D,CD]/ C4 | E,8 x2[I:staff -1] ^f/=B/^G/=D/^F/=B,/ | %54
[I:staff +1] .[E,,,E,,]2 x ^G,>^C x3[I:staff -1] d/^F/E/=B,/D/^F,/ | %55
[I:staff +1] x2[I:staff -1] (^C/^G,/)=B,/=F,/E/B,/ D/G,/=G/D/=F/B,/ A/F/^G/D/4=c/G/ =B/F/e/B/d/G/ | %56
[I:staff +1] F,2 x D,2 x F,4 x2 | E,,/=B,,/^G,,/D,/G,,/^D,/ x9 E4[K:treble+8] x4 z[K:bass] x3 | %58
[K:bass] =B,,,/F,,/D,,/^G,,/D,,/G,,/ F,,/=B,,/F,,/B,,/G,,/D,/ G,,/D,/B,,/^F,/B,,/F,/ x13/2 | %59
 F,/=B,/^G,/D/G,/D/[K:treble+8] =B,/F/B,/F/D/-^G/ [D^F=B] z[K:bass] z2 | %60
[K:bass] (3(F/D/E/ =B,) z2 (3(F/D/E/ B,) z2 | %61
 (6:4:6F/D/E/=B,/F/D/ x E/B,/F/D/E/B,/ x17/6 E/B,/F/D/E/B,/ x/24 | %62
 F/E/^D/ [CD]/^C/=C/ =B,/^A,/=A,/^G,/ =G,/^F,/ =F,/E,/^D,/=D,/^C,/=C,/ =B,,/^A,,/ A,,/^G,,/G,,/ ^F,,2 | %63
 =F,,/E,,/ ^D,,/E,,/F,,/E,,/ D,,/E,,/F,,/E,,/D,,/E,,/ F,,/E,,/D,,/E,,/F,,/E,,/ D,,/E,,/F,,/E,,/D,,/E,,/ | %64
!ped! .A,,,2 x [A,CE]>[A,CE] x/ [A,CE]2 x [A,CF]2 x | %65
[I:staff -1] e'4[I:staff +1] x/[I:staff -1] =b4[I:staff +1] x5 | %66
 .A,,,2 x [A,,E,]>[A,,E,] x [A,,E,]2 x [A,,F,]2 x | [A,,E,]2 x3/2 [A,,,A,,,]3 x11/2 | %68
[K:bass]!ped! .^G,,,2 x ([F,D]>!ped-up![F,D] x!ped! [F,C]2) x ([A,,,A,,]2 x | %69
 .[^G,,,^G,,]2) x!ped-up!!>(! (3:2:2[^G,D]!>)! [F,D][I:staff -1] =b/[I:staff +1](3:2:1[E,D][I:staff -1] d'/ f/ d'/a/c'/f/d/A/[I:staff +1] x15/8 | %70
 .[=B,,,=B,,]2[K:treble+8] x (3(E^G^c) x!ped! [=B,^DA=B]2[K:bass] x ([B,,=B,]2 x5/2 | %71
 .[E,,E,]2) x (3([=B,^G][^A,^^F][B,G]!ped! .[E,^G,E]2) x11/4!ped-up! | %72
[K:bass]!ped! .A,,,2 x [A,CE]>[A,CE] x/ [A,CE]2 x [A,CF]2 x | %73
[I:staff -1] e'4[I:staff +1] x/[I:staff -1] =b4[I:staff +1] x5 | %74
!ped! .G,,,2 x [G,,E,]>[G,,E,] x E,2 x F,2 x3/4 | E,2 x4 F,,2 x E,,2 x3 | %76
 .D,,2 x ([A,F]/[I:staff -1] =b/!ped-up![I:staff +1]^C,,[I:staff -1]^c''/f/[I:staff +1]D,,)[I:staff -1] =b'/!ped![I:staff +1] x43/8 | %77
 .E,,2 x/ ([=B,B,G]/^D,E,) x/8 B4 x2 | %78
[K:bass]!ped! .[F,,,F,,]2 x [F,F]>.[F,F] x [F,F]2 x5/2 [F,CG]2 x | [F,F]2 x [C,C]2 x [F,F]4 x2 | %80
 F,,/!ped!=B,,/A,,/^D,/A,,/D,/ x17/6 D,/A,/F,/=B,/F,/[K:treble+8]B,,/ A,,/^D,/A,,/D,/B,,/F,/ x/24 | %81
 =B,/F/^D/A/D/A/ F/=B/F/B/A/^d/ A/d/B/f/B/f/ d/a/d/a/f/!ped-up!=b/ | %82
[K:treble] [EAce] x/ z/ [c'd']4 f/c/e/A/[K:bass]d/A/ c/E/=B/E/A/C/ | %83
 F/C/E/A,/D/A,/ C/E,/=B,/E,/A,/C,/ [E,,E,]2 [E,,,E,,]2 | %84
[K:bass] !>![A,,,A,,,C,,]/E,,/C,/E,,/ x !>!A,,,/E,,/C,/E,,/ x3/2 !>!A,,,/E,,/C,/E,,/ x3/4 !>!A,,,/E,,/C,/E,,/ x | %85
 !>!A,,,/E,,/C,/E,,/!ped-up! x!ped! !>!E,,,/E,,/C,/E,,/!ped-up! x !>!A,,,/!ped!E,,/C,/E,,/ x ^C,/E,,/=C,/E,,/ x | %86
 A,,,/E,,/C,/E,,/ x A,,,/E,,/C,/E,,/ x A,,,/E,,/C,/E,,/ x A,,,/E,,/^C,/E,,/ x | %87
 .A,,.^G,,.=G,, (3.^F,,.=F,,.E,, x .^D,,.=D,,.^C,, .=C,,.=B,,,._B,,, | %88
[K:bass] !wedge!A,,,2 [A,,,E,,A,,]>[A,,,E,,A,,] [A,,,E,,A,,]2 [A,,,D,,A,,]2 | %89
 !>![A,,,E,,A,,]4 !>![A,,,F,,A,,]4 | %90
!>(![I:staff -1] [ACE]8[I:staff +1] x5[I:staff -1] [f'^ga]2 g [a=b]2 !tenuto![bd'] | %91
 !wedge!a2[I:staff +1] z2!>)! x4 |] %92
V:3
 x8 | x8 | x8 | x4 C2 x2 || x5/2 c'2 b4 x3 | x5/2 [c'c']2 b4 x3 | x12 | %7
 x3[K:bass] C,4 x3[K:treble+8] x2 |[K:treble] x23/2 | x12 | x3[I:staff +1] [^GB]2 x17/2 | %11
 x17/3 .[E,^G,E]2 x11/6 |[I:staff -1][K:treble] x5/2 c'2 b4 x3 | x5/2 [c'c']2 x2 b4 x3 | %14
[K:treble+8] x23/2 ^D/_A,/C/_G,/ _C/A,/ x2 A,4 x3/2 !tenuto!C2 | %15
[K:treble] x3[I:staff +1] (3([G,_B,B,E]=B,,C,) [^C,G,=B,=E]2 x7/2 | x7/2[I:staff -1] _b4 x5/2 | %17
 x7 _b4 b4 | x6[I:staff +1] (D>E x F2) x | x3 G2 x7 | x10[I:staff -1] ^c'4 |[K:treble] x2 c'4 x6 | %22
 x2 c'4 x6 | x47/4 | x3[K:bass] x9 |[K:bass] x2[K:treble+8] x8[K:bass] x2 | %26
 x2[K:treble+8] x[I:staff +1] ([^D,C^D][D,C]>[D,B,] [E,B,]2)[K:treble+8] x[K:bass] x3 | %27
[I:staff -1][K:treble] x3[I:staff +1] ^F,2[I:staff -1] ^f/^d/^A/ ^c/^F/ x/ || %28
[K:G] x11/3 ^e'/b/^d'/f/ z2 x/3 | %29
 x3[I:staff +1] [E,G,B,]>[E,^G,B,] x [E,=G,B,]2 x [E,G,C]2 x4 [B,,E,G,]2 x B,2 x8 | %30
[I:staff -1][K:treble] x3 z x5[K:bass] x7/2 |[I:staff +1] D,,,2 x6[K:treble+8] x4 | %32
[I:staff -1][K:treble] x11/3 e'/b/d'/^f/ x3/2 d/^F/E/_B,/ D/F,/ ||[K:F] x13 | x12 | %35
 x6 [=bb]/f/[aa]/_d/_g/d/ f/_A/e/A/[I:staff +1]A[I:staff -1]d/F/ x | %36
 x3 [aa]/[I:staff +1] ([G,C][I:staff -1]e/^f/[I:staff +1][DE][I:staff -1]c/g/[I:staff +1]G)[I:staff -1] e/ a/=B/f/=f/g/B/ d'4 | %37
 x12 | x13/2 [Geg]2 x17 |[K:treble] x23/2 | x33/2 | x =b4 x3 a4 x3/2 | %42
[I:staff +1] _E,4 x5/2 C2 x4 | x/[I:staff -1] a4 x4 [^g=b]/e/a/e/g/=B/ | %44
[I:staff +1] =B,,4- x2 !arpeggio![^E,,B,,]2 x4 | x5/2[I:staff -1] =B2 [=bd']2 x4 | x4 a4 x5 | %47
 x11/2 _g'4 x3 | x8 c'4 x7/4 |[K:treble] x2 a4 x6 | x3[I:staff +1] [A,,,A,,E,]4 x5 | %51
 x31/4 [=B,,=B,]2 x | x9 [C,C]2 x | .E,,2 x =B,>E x D4 x3 | %54
 x11/2[I:staff -1] [^ge']/=b/[bd']/^f/e/ x3 | x2[I:staff +1] E,,8 x15/4 | E,,8 x4 | %57
 x3[I:staff -1] c'4 x5/2 ^g/=B/=g/^d/^f/^G/ [e'^f']/=b/e'/^d'/b/ x [^c'=d']/^g/c'/=g/[bc']/f/ x/ !wedge![fb] z2 x3/2 | %58
[K:treble] x9 c'4 x5/2 | x5[I:staff +1] d x4 | x8 | x35/6 F/D/E/=B,/F/D/ x73/24 | x3/2 C4 x8 | %63
 x12 | x5/2[I:staff -1] c'2 =b4 x3 | x5/2 [c'c']2 x2 =b4 x3 | x12 | %67
 x3[K:bass] C,4 x3[K:treble+8] x2 |[K:treble] x12 | x16/3[I:staff +1] [E,C]2 x [A,,,A,,]2 x25/24 | %70
 x3 [^G=B]2 x17/2 | x11/3[I:staff -1] ^a'/e'/-^g'/=b/ e'2 z2 | x5/2 c'2 =b4 x3 | %73
 x5/2 [c'c']2 x2 =b4 x3 | x6[I:staff +1] G,,4 x7/4 |[I:staff +1] G,,4[I:staff -1][K:bass] x10 | %76
[I:staff -1][K:bass] x2[K:treble+8] x11/2[I:staff +1] [^D,,A,^F]2 x3/8 ^D,,2 x | %77
 x5/2 =B,4 x9/8 [F,,F,]2 x3/2 |[I:staff -1][K:treble] x27/2 | x12 | %80
 x17/6[I:staff +1] =B,,/F,/B,,/F,/^D,/A,/ x145/24 | x12 | x2[I:staff -1] c4 x6 | x10 | %84
 x15/2 c'4 x3/4 | x12 | x9[K:bass] x3 | x12 |[K:bass] x2[K:treble+8] x6 | x8 | %90
[I:staff +1] A,,,8 x11 | x8 |] %92
V:4
 x8 | x8 | x8 | x8 || x7/2 ^d'4 x4 | x13/2 b4 x | x12 | %7
 x3[K:bass] x3[I:staff +1] E,,,4[K:treble+8] x2 |[I:staff -1][K:treble] x23/2 | x12 | x27/2 | %11
 x37/6 z2 x4/3 |[K:treble] x7/2 ^d'4 x4 | x3[I:staff +1] [E,A,C]2 x/ [A,CE]4 x4 | %14
[I:staff -1][K:treble+8] x14[I:staff +1] _C,,,6 x4 |[I:staff -1][K:treble] x7/2 _b4 x3 | %16
 x11/3 a'/e'/g'/_b/ _e'4 x/3 | x15 | x12 | x12 | x14 |[K:treble] x4 b4 x4 | x4 b4 x4 | x47/4 | %24
 x3[K:bass] x9 |[K:bass] x2[K:treble+8] x8[K:bass] x2 | %26
 x2[K:treble+8] x6[K:treble+8] x[K:bass] x3 |[K:treble] x11/3 e'/b/^d'/^f/ d'2 x/3 || %28
[K:G] x31/6 z2 x5/6 | x28 |[K:treble] x9[K:bass] x7/2 | x8[K:treble+8] x4 | %32
[K:treble] x5 d'4 x5/4 ||[K:F] x13 | x12 | x7 a4 x3 | x6[I:staff +1] .G,,2 x8 | x12 | x43/2 G,,4 | %39
[I:staff -1][K:treble] x23/2 | x33/2 | x2 a4 x5/2 _d'4 x | x =b4 x5/2 _a4 x | x2 d'4 x11/2 | x12 | %45
 x5 !wedge!^c'/^g/ x9/2 | x13 | x11/2 f' !>![=bd']!<(![_e'e']/_g/ f/c/ x3 | %48
 x6!<)! x11/3 [=b^c']/g/b/e/ x25/12 | %49
[K:treble] x3[I:staff +1] !arpeggio![C,,G,,E,]2 x !arpeggio![F,,C,A,]2 x !arpeggio![B,,,^D,]2 x | %50
 x12 | x43/4 | x12 | x11/2[I:staff -1] [=b^g']/g'/ [c'e'] x11/2 | x11 | x55/4 | x12 | %57
 x11/2 =b4 x3 (e'4 x2 b4) x3/2 |[K:treble] x23/2 =b4 | x10 | x8 | x95/8 | x27/2 | x12 | %64
 x7/2 ^d'4 x4 | x3[I:staff +1] [E,A,C]2 x/ [A,CE]4 x4 | x12 | %67
 x3[I:staff -1][K:bass] x3[I:staff +1] E,,,4[K:treble+8] x2 |[I:staff -1][K:treble] x12 | x91/8 | %70
 x27/2 | x31/6 z2 x31/12 | x7/2 ^d'4 x4 | x3[I:staff +1] [E,A,C]2 x/ [A,CE]4 x4 | x47/4 | %75
 x3[I:staff -1][K:bass] C4 x7 |[K:bass] x2[K:treble+8] x87/8 | %77
 x41/8[I:staff +1] [=F,,_B,=DBB]4 x2 |[I:staff -1][K:treble] x27/2 | x12 | x95/8 | x12 | %82
 x2[I:staff +1] c'4 x6 | x10 | x8[I:staff -1] ^d'4 x/4 | x12 | x9[K:bass] x3 | x12 | %88
[K:bass] x2[K:treble+8] x6 | x8 |[I:staff +1] !tenuto!E,,,8 x11 | x8 |] %92
V:5
 x8 | x8 | x8 | x8 || x13/2 b4 x | x23/2 | x12 | x3[K:bass] x7[K:treble+8] x2 |[K:treble] x23/2 | %9
 x12 | x27/2 | x19/2 |[K:treble] x13/2 b4 x | x7/2 ^d'4 x6 |[K:treble+8] x24 | %15
[K:treble] x11/3 a'/e'/g'/=b/ e'4 x5/6 | x7 g/_B/A/_E/G/_B,/ | x15 | x12 | x12 | x14 | %21
[K:treble] x12 | x12 | x47/4 | x3[K:bass] x9 |[K:bass] x2[K:treble+8] x8[K:bass] x2 | %26
 x2[K:treble+8] x6[K:treble+8] x[K:bass] x3 | %27
[K:treble] x5/6 (3:2:1x4 x2/3[I:staff +1] (3:2:1G x2/3 [^F,,,^F,,]2 x/ ||[K:G] x8 | x28 | %30
[I:staff -1][K:treble] x9[K:bass] x7/2 | x8[K:treble+8] x4 |[K:treble] x41/4 ||[K:F] x13 | x12 | %35
 x10[I:staff +1] _D4 | x11[I:staff -1] c'4 x | x12 | x51/2 |[K:treble] x23/2 | x33/2 | %41
 x6[I:staff +1] [_E,C]2 x11/2 | x13/2 [_A,,_E,]2 x4 | x6 [=B,,^G,]2 x7/2 | x12 | %45
 x11/2[I:staff -1] [^g=b]/d/ x4 | x13 | x15/2 _e'4 x | x29/3 =b4 |[K:treble] x12 | x12 | x43/4 | %52
 x12 | x13 | x11 | x55/4 | x12 | x13/2 =b/f/_b/^d/a/f/ x13/2 ^c'4 z x3 |[K:treble] x31/2 | x10 | %60
 x8 | x95/8 | x27/2 | x12 | x13/2 =b4 x | x7/2 ^d'4 x6 | x12 | x3[K:bass] x7[K:treble+8] x2 | %68
[K:treble] x12 | x91/8 | x27/2 | x39/4 | x13/2 =b4 x | x7/2 ^d'4 x6 | x47/4 | x3[K:bass] x11 | %76
[K:bass] x2[K:treble+8] x87/8 | x89/8 |[K:treble] x27/2 | x12 | x95/8 | x12 | %82
 x5/2[I:staff +1] a2 x15/2 | x10 | x49/4 | x12 | x9[I:staff -1][K:bass] x3 | x12 | %88
[K:bass] x2[K:treble+8] x6 | x8 |[I:staff +1] !>!A,,,,8 x11 | x8 |] %92

